flaticon/travel/cocktail.svg

<svg xmlns="http://www.w3.org/2000/svg" width="32" height="32" viewBox="0 0 24 24">
    <path d="M 22.847656 3.550781 L 20.390625 1.09375 C 19.851562 0.550781 19.105469 0.296875 18.347656 0.398438 C 17.589844 0.496094 16.933594 0.9375 16.546875 1.605469 L 14.304688 5.425781 C 13.429688 5.277344 12.519531 5.199219 11.601562 5.199219 C 9.644531 5.199219 7.875 5.519531 6.460938 6.058594 L 5.414062 3.984375 C 5.414062 3.984375 5.410156 3.980469 5.410156 3.980469 C 5.40625 3.976562 5.40625 3.972656 5.40625 3.964844 C 5.296875 3.777344 5.417969 3.5 5.667969 3.351562 C 5.796875 3.277344 5.949219 3.25 6.082031 3.273438 C 6.144531 3.285156 6.265625 3.320312 6.328125 3.433594 C 6.4375 3.625 6.683594 3.6875 6.875 3.578125 C 7.003906 3.503906 7.074219 3.371094 7.074219 3.234375 C 7.074219 3.164062 7.058594 3.097656 7.019531 3.03125 C 6.914062 2.84375 7.03125 2.566406 7.28125 2.417969 C 7.535156 2.273438 7.835938 2.3125 7.945312 2.5 C 8.027344 2.644531 8.1875 2.714844 8.339844 2.695312 C 8.390625 2.691406 8.441406 2.671875 8.492188 2.644531 C 8.636719 2.5625 8.707031 2.40625 8.6875 2.25 C 8.683594 2.199219 8.664062 2.148438 8.636719 2.097656 C 7.480469 0.09375 4.90625 -0.597656 2.898438 0.5625 C 1.929688 1.125 1.234375 2.027344 0.945312 3.113281 C 0.652344 4.195312 0.800781 5.328125 1.363281 6.300781 C 1.4375 6.429688 1.570312 6.5 1.710938 6.5 C 1.777344 6.5 1.847656 6.480469 1.910156 6.445312 C 2.054688 6.363281 2.125 6.203125 2.105469 6.050781 C 2.101562 6 2.085938 5.945312 2.054688 5.898438 C 1.972656 5.75 2.140625 5.386719 2.433594 5.21875 C 2.683594 5.074219 2.988281 5.113281 3.09375 5.300781 C 3.207031 5.492188 3.449219 5.554688 3.640625 5.445312 C 3.769531 5.371094 3.839844 5.238281 3.839844 5.097656 C 3.839844 5.03125 3.824219 4.960938 3.789062 4.898438 C 3.722656 4.789062 3.75 4.667969 3.773438 4.605469 C 3.816406 4.480469 3.917969 4.363281 4.050781 4.285156 C 4.179688 4.210938 4.332031 4.179688 4.464844 4.207031 C 4.53125 4.21875 4.644531 4.253906 4.710938 4.363281 L 5.726562 6.375 C 4.359375 7.039062 3.453125 7.933594 3.246094 8.949219 L 3.226562 9 C 2.679688 10.382812 2.398438 11.863281 2.398438 13.398438 C 2.398438 19.246094 6.527344 24 11.601562 24 C 16.671875 24 20.800781 19.246094 20.800781 13.398438 C 20.800781 11.863281 20.523438 10.382812 19.972656 8.996094 L 19.953125 8.957031 C 19.722656 7.78125 18.582031 6.753906 16.71875 6.050781 L 18.625 2.800781 L 18.695312 2.789062 L 21.152344 5.246094 C 21.605469 5.699219 22.398438 5.699219 22.851562 5.246094 C 23.078125 5.019531 23.199219 4.71875 23.199219 4.398438 C 23.199219 4.078125 23.078125 3.777344 22.847656 3.550781 Z M 4.632812 3.421875 C 4.625 3.421875 4.617188 3.421875 4.613281 3.417969 C 4.289062 3.359375 3.949219 3.421875 3.648438 3.59375 C 3.351562 3.765625 3.128906 4.03125 3.019531 4.339844 C 3.015625 4.347656 3.015625 4.351562 3.011719 4.359375 C 2.699219 4.292969 2.347656 4.347656 2.035156 4.527344 C 1.898438 4.605469 1.773438 4.710938 1.660156 4.828125 C 1.566406 4.335938 1.582031 3.820312 1.714844 3.320312 C 1.953125 2.441406 2.515625 1.710938 3.300781 1.253906 C 4.570312 0.523438 6.121094 0.707031 7.1875 1.601562 C 7.082031 1.632812 6.980469 1.671875 6.882812 1.726562 C 6.570312 1.910156 6.351562 2.1875 6.246094 2.492188 C 6.242188 2.488281 6.234375 2.488281 6.230469 2.488281 C 5.90625 2.425781 5.566406 2.488281 5.265625 2.660156 C 4.953125 2.839844 4.734375 3.121094 4.632812 3.421875 Z M 11.601562 6 C 12.371094 6 13.132812 6.054688 13.871094 6.164062 L 13.433594 6.914062 C 12.835938 6.84375 12.226562 6.800781 11.601562 6.800781 C 9.820312 6.800781 8.320312 7.082031 7.183594 7.488281 L 6.824219 6.777344 C 8.140625 6.292969 9.808594 6 11.601562 6 Z M 12.035156 10.027344 C 12.125 10.335938 12.324219 10.59375 12.605469 10.75 C 12.785156 10.847656 12.984375 10.902344 13.191406 10.902344 C 13.625 10.902344 14.027344 10.664062 14.234375 10.292969 L 15.484375 8.160156 C 16.957031 8.640625 17.5625 9.246094 17.601562 9.382812 C 17.523438 9.703125 15.714844 11.199219 11.601562 11.199219 C 7.488281 11.199219 5.675781 9.703125 5.597656 9.417969 C 5.632812 9.273438 6.023438 8.890625 6.808594 8.515625 L 7.242188 9.378906 C 7.261719 9.417969 7.285156 9.449219 7.3125 9.476562 C 7.320312 9.484375 7.324219 9.488281 7.332031 9.492188 C 7.359375 9.519531 7.394531 9.539062 7.425781 9.554688 C 7.4375 9.5625 7.449219 9.566406 7.460938 9.570312 C 7.507812 9.585938 7.550781 9.597656 7.597656 9.597656 C 7.597656 9.597656 7.597656 9.597656 7.601562 9.597656 C 7.648438 9.597656 7.695312 9.585938 7.738281 9.570312 C 7.746094 9.566406 7.753906 9.566406 7.761719 9.5625 C 7.769531 9.558594 7.773438 9.558594 7.78125 9.554688 C 7.796875 9.546875 7.808594 9.53125 7.824219 9.519531 C 7.847656 9.503906 7.871094 9.488281 7.890625 9.46875 C 7.910156 9.449219 7.921875 9.425781 7.933594 9.40625 C 7.949219 9.382812 7.960938 9.363281 7.972656 9.339844 C 7.980469 9.3125 7.984375 9.285156 7.988281 9.253906 C 7.992188 9.238281 8 9.21875 8 9.199219 C 8 9.195312 7.996094 9.191406 7.996094 9.1875 C 7.996094 9.160156 7.988281 9.136719 7.980469 9.109375 C 7.976562 9.082031 7.972656 9.054688 7.960938 9.03125 C 7.957031 9.027344 7.960938 9.023438 7.957031 9.019531 L 7.546875 8.210938 C 8.511719 7.875 9.84375 7.597656 11.601562 7.597656 C 12.070312 7.597656 12.535156 7.628906 12.988281 7.671875 L 12.144531 9.117188 C 11.988281 9.394531 11.949219 9.71875 12.035156 10.027344 Z M 11.601562 23.199219 C 6.96875 23.199219 3.199219 18.804688 3.199219 13.398438 C 3.199219 12.445312 3.320312 11.515625 3.550781 10.617188 C 4.503906 12.246094 7.339844 13.433594 10.863281 13.582031 C 11.105469 13.59375 11.351562 13.601562 11.601562 13.601562 C 11.847656 13.601562 12.09375 13.59375 12.335938 13.582031 C 15.859375 13.433594 18.699219 12.246094 19.652344 10.617188 C 19.878906 11.515625 20 12.445312 20 13.398438 C 20 18.804688 16.234375 23.199219 11.601562 23.199219 Z M 19.179688 9.164062 C 19 11.171875 15.621094 12.800781 11.601562 12.800781 C 7.597656 12.800781 4.230469 11.183594 4.027344 9.1875 C 4.140625 8.386719 4.90625 7.652344 6.089844 7.089844 L 6.445312 7.796875 C 5.390625 8.296875 4.800781 8.902344 4.800781 9.398438 C 4.800781 10.460938 7.449219 12 11.601562 12 C 15.75 12 18.402344 10.460938 18.402344 9.398438 C 18.402344 8.742188 17.394531 7.976562 15.898438 7.457031 L 16.308594 6.753906 C 17.984375 7.359375 19.027344 8.238281 19.179688 9.164062 Z M 22.285156 4.683594 C 22.132812 4.832031 21.871094 4.832031 21.71875 4.683594 L 19.261719 2.222656 C 19.070312 2.035156 18.8125 1.949219 18.554688 1.984375 C 18.292969 2.019531 18.066406 2.167969 17.9375 2.394531 L 13.539062 9.894531 C 13.4375 10.082031 13.183594 10.15625 12.996094 10.050781 C 12.902344 10 12.835938 9.914062 12.804688 9.808594 C 12.777344 9.707031 12.789062 9.597656 12.835938 9.511719 L 17.238281 2.007812 C 17.5 1.554688 17.941406 1.257812 18.453125 1.191406 C 18.527344 1.183594 18.601562 1.175781 18.671875 1.175781 C 19.101562 1.175781 19.515625 1.347656 19.828125 1.660156 L 22.285156 4.117188 C 22.359375 4.191406 22.402344 4.292969 22.402344 4.398438 C 22.402344 4.503906 22.359375 4.605469 22.285156 4.683594 Z M 22.285156 4.683594"/>
    <path d="M11.199219 20.398438C8.332031 20.398438 6 18.066406 6 15.199219 6 14.980469 5.820312 14.800781 5.601562 14.800781 5.378906 14.800781 5.199219 14.980469 5.199219 15.199219 5.199219 18.507812 7.890625 21.199219 11.199219 21.199219 11.421875 21.199219 11.601562 21.019531 11.601562 20.800781 11.601562 20.578125 11.421875 20.398438 11.199219 20.398438zM9.601562 9.199219C9.601562 9.421875 9.421875 9.597656 9.199219 9.597656 8.980469 9.597656 8.800781 9.421875 8.800781 9.199219 8.800781 8.976562 8.980469 8.800781 9.199219 8.800781 9.421875 8.800781 9.601562 8.976562 9.601562 9.199219zM10.800781 10C10.800781 10.21875 10.621094 10.398438 10.402344 10.398438 10.179688 10.398438 10 10.21875 10 10 10 9.777344 10.179688 9.597656 10.402344 9.597656 10.621094 9.597656 10.800781 9.777344 10.800781 10zM11.199219 8.398438C11.199219 8.621094 11.019531 8.800781 10.800781 8.800781 10.578125 8.800781 10.402344 8.621094 10.402344 8.398438 10.402344 8.179688 10.578125 8 10.800781 8 11.019531 8 11.199219 8.179688 11.199219 8.398438zM11.199219 8.398438"/>
</svg>

<svg xmlns="http://www.w3.org/2000/svg" width="32" height="32" viewBox="0 0 24 24">
    <path d="M22.848 3.55L20.39 1.095a2.408 2.408 0 0 0-2.043-.696 2.43 2.43 0 0 0-1.801 1.207l-2.242 3.82a16.216 16.216 0 0 0-2.703-.226c-1.957 0-3.727.32-5.141.86L5.414 3.984 5.41 3.98c-.004-.003-.004-.007-.004-.015-.11-.188.012-.465.262-.613a.63.63 0 0 1 .414-.079c.063.012.184.047.246.16a.4.4 0 0 0 .692-.402c-.106-.187.011-.465.261-.613.254-.145.555-.106.664.082a.396.396 0 0 0 .547.145.393.393 0 0 0 .195-.395.39.39 0 0 0-.05-.152A4.204 4.204 0 0 0 2.898.563a4.171 4.171 0 0 0-1.953 2.55 4.156 4.156 0 0 0 .418 3.188.397.397 0 0 0 .547.144.396.396 0 0 0 .195-.394.321.321 0 0 0-.05-.153c-.082-.148.086-.511.379-.68.25-.144.554-.105.66.083a.401.401 0 0 0 .695-.403.34.34 0 0 1-.016-.293.624.624 0 0 1 .278-.32.607.607 0 0 1 .414-.078c.066.012.18.047.246.156l1.016 2.012c-1.368.664-2.274 1.559-2.48 2.574L3.226 9a11.91 11.91 0 0 0-.829 4.398C2.398 19.246 6.528 24 11.602 24c5.07 0 9.199-4.754 9.199-10.602 0-1.535-.278-3.015-.828-4.402l-.02-.039c-.23-1.176-1.371-2.203-3.234-2.906l1.906-3.25.07-.012 2.457 2.457c.453.453 1.246.453 1.7 0 .226-.226.347-.527.347-.848 0-.32-.12-.62-.351-.847zM4.633 3.423c-.008 0-.016 0-.02-.004a1.431 1.431 0 0 0-.965.176c-.296.172-.52.437-.628.746l-.008.02a1.394 1.394 0 0 0-.977.167 1.715 1.715 0 0 0-.375.301 3.398 3.398 0 0 1 .055-1.508c.238-.879.8-1.61 1.586-2.066a3.408 3.408 0 0 1 3.886.348c-.105.03-.207.07-.304.125a1.44 1.44 0 0 0-.637.765c-.004-.004-.012-.004-.016-.004-.324-.062-.664 0-.964.172-.313.18-.532.461-.633.762zM11.602 6c.77 0 1.53.055 2.27.164l-.438.75a15.64 15.64 0 0 0-1.832-.113c-1.782 0-3.282.281-4.418.687l-.36-.71C8.141 6.292 9.81 6 11.602 6zm.433 4.027a1.2 1.2 0 0 0 2.2.266l1.25-2.133c1.472.48 2.078 1.086 2.117 1.223-.079.32-1.887 1.816-6 1.816-4.114 0-5.926-1.496-6.004-1.781.035-.145.425-.527 1.21-.902l.434.863c.02.039.043.07.07.098a.069.069 0 0 0 .02.015.357.357 0 0 0 .129.078c.047.016.09.028.137.028h.004a.406.406 0 0 0 .136-.028c.008-.004.016-.004.024-.008l.02-.007c.015-.008.027-.024.042-.035.024-.016.047-.032.067-.051.02-.02.03-.043.043-.063a.588.588 0 0 0 .039-.066.56.56 0 0 0 .015-.086c.004-.016.012-.035.012-.055 0-.004-.004-.008-.004-.011 0-.028-.008-.051-.016-.079-.003-.027-.007-.054-.02-.078-.003-.004 0-.008-.003-.011l-.41-.81c.965-.335 2.297-.612 4.055-.612.468 0 .933.03 1.386.074l-.843 1.445a1.193 1.193 0 0 0-.11.91zM11.602 23.2c-4.633 0-8.403-4.394-8.403-9.8 0-.954.121-1.883.352-2.782.953 1.63 3.789 2.817 7.312 2.965.242.012.489.02.739.02.246 0 .492-.008.734-.02 3.523-.148 6.363-1.336 7.316-2.965.227.899.348 1.828.348 2.781 0 5.407-3.766 9.801-8.398 9.801zM19.18 9.164c-.18 2.008-3.559 3.637-7.578 3.637-4.004 0-7.372-1.617-7.575-3.614.114-.8.88-1.535 2.063-2.097l.355.707c-1.054.5-1.644 1.105-1.644 1.601C4.8 10.461 7.449 12 11.6 12c4.149 0 6.801-1.54 6.801-2.602 0-.656-1.007-1.421-2.504-1.941l.41-.703c1.676.605 2.72 1.484 2.872 2.41zm3.105-4.48a.416.416 0 0 1-.566 0l-2.457-2.461a.843.843 0 0 0-.707-.239.83.83 0 0 0-.617.41l-4.399 7.5a.398.398 0 1 1-.734-.086.408.408 0 0 1 .03-.296l4.403-7.504c.262-.453.703-.75 1.215-.817.074-.007.149-.015.219-.015.43 0 .844.172 1.156.484l2.457 2.457a.4.4 0 0 1 0 .567zm0 0"/>
    <path d="M11.2 20.398A5.205 5.205 0 0 1 6 15.2a.4.4 0 0 0-.8 0c0 3.309 2.69 6 6 6a.401.401 0 1 0 0-.8zm0 0M9.602 9.2c0 .222-.18.398-.403.398a.398.398 0 1 1 0-.797c.223 0 .403.176.403.398zm0 0M10.8 10a.4.4 0 1 1-.8-.003.4.4 0 0 1 .8.003zm0 0M11.2 8.398a.398.398 0 1 1-.797 0 .398.398 0 1 1 .796 0zm0 0"/>
</svg>
